mimetypes/64/ms-office-spreadsheet.svg

<?xml version="1.0" encoding="UTF-8" standalone="no"?>
<!-- Created with Inkscape (http://www.inkscape.org/) -->

<svg
   xmlns:dc="http://purl.org/dc/elements/1.1/"
   xmlns:cc="http://creativecommons.org/ns#"
   xmlns:rdf="http://www.w3.org/1999/02/22-rdf-syntax-ns#"
   xmlns:svg="http://www.w3.org/2000/svg"
   xmlns="http://www.w3.org/2000/svg"
   xmlns:sodipodi="http://sodipodi.sourceforge.net/DTD/sodipodi-0.dtd"
   xmlns:inkscape="http://www.inkscape.org/namespaces/inkscape"
   version="1.1"
   width="64"
   height="64"
   id="svg13094"
   inkscape:version="0.48.4 r9939"
   sodipodi:docname="ms-office-spreadsheet.svg">
  <sodipodi:namedview
     pagecolor="#ffffff"
     bordercolor="#666666"
     borderopacity="1"
     objecttolerance="10"
     gridtolerance="10"
     guidetolerance="10"
     inkscape:pageopacity="0"
     inkscape:pageshadow="2"
     inkscape:window-width="1920"
     inkscape:window-height="1022"
     id="namedview44"
     showgrid="false"
     inkscape:snap-bbox="true"
     inkscape:bbox-nodes="true"
     inkscape:snap-bbox-edge-midpoints="true"
     inkscape:snap-bbox-midpoints="true"
     inkscape:bbox-paths="true"
     inkscape:zoom="9.2187498"
     inkscape:cx="34.066719"
     inkscape:cy="37.524716"
     inkscape:current-layer="svg13094"
     inkscape:window-x="-5"
     inkscape:window-y="23"
     inkscape:window-maximized="1">
    <inkscape:grid
       type="xygrid"
       id="grid4177" />
  </sodipodi:namedview>
  <defs
     id="defs11">
    <linearGradient
       x1="31"
       y1="64"
       x2="31"
       y2="2"
       id="linearGradient3984-4"
       gradientUnits="userSpaceOnUse">
      <stop
         id="stop3099-5"
         style="stop-color:#7dc335;stop-opacity:1"
         offset="0" />
      <stop
         id="stop3875-5"
         style="stop-color:#7dc335;stop-opacity:1"
         offset="0.5" />
      <stop
         id="stop3873-8"
         style="stop-color:#6eae35;stop-opacity:1"
         offset="0.5" />
      <stop
         id="stop3101-9"
         style="stop-color:#6eae35;stop-opacity:1"
         offset="1" />
    </linearGradient>
    <linearGradient
       gradientUnits="userSpaceOnUse"
       id="linearGradient3873"
       y2="2"
       x2="31"
       y1="64"
       x1="31">
      <stop
         offset="0"
         style="stop-color:#dadada;stop-opacity:1"
         id="stop3875-7" />
      <stop
         offset="0.50050378"
         style="stop-color:#ebebeb;stop-opacity:1"
         id="stop3877" />
      <stop
         offset="0.51612902"
         style="stop-color:#dadada;stop-opacity:1"
         id="stop3879" />
      <stop
         offset="1"
         style="stop-color:#ebebeb;stop-opacity:1"
         id="stop3881" />
    </linearGradient>
    <linearGradient
       gradientUnits="userSpaceOnUse"
       id="linearGradient3828-4"
       y2="2"
       x2="31"
       y1="64"
       x1="31">
      <stop
         offset="0"
         style="stop-color:#efefef;stop-opacity:1"
         id="stop3830-5" />
      <stop
         offset="0.50050378"
         style="stop-color:#efefef;stop-opacity:1"
         id="stop3832-7" />
      <stop
         offset="0.49999994"
         style="stop-color:#e0e4e6;stop-opacity:1"
         id="stop3834-2" />
      <stop
         offset="1"
         style="stop-color:#e0e4e6;stop-opacity:1"
         id="stop3836-1" />
    </linearGradient>
  </defs>
  <metadata
     id="metadata13099">
    <rdf:RDF>
      <cc:Work
         rdf:about="">
        <dc:format>image/svg+xml</dc:format>
        <dc:type
           rdf:resource="http://purl.org/dc/dcmitype/StillImage" />
        <dc:title />
      </cc:Work>
    </rdf:RDF>
  </metadata>
  <path
     d="M 4,0 64,0 64,62 4,62 z"
     id="path3960"
     style="fill:#529e1b;fill-opacity:1;fill-rule:nonzero" />
  <path
     style="fill:#235400;fill-rule:nonzero;fill-opacity:0.34473684"
     d="M 60 2 L 60 33 L 35.677734 62 L 64 62 L 64 37 L 64 6 L 60 2 z "
     id="path3900" />
  <path
     d="M 0,2 60,2 60,33 34,64 0,64 z"
     id="path3982"
     style="fill:#70bc2c;fill-rule:nonzero;fill-opacity:1" />
  <path
     d="M 34,64 60,33 c -2.328567,2.776369 -4.36141,3 -11,3 H 37 v 15 c 0,6.64407 0.04437,9.37018 -3,13 z"
     id="path4278"
     style="fill:#55a018;fill-rule:nonzero;fill-opacity:1" />
  <path
     style="color:#000000;fill:#e9f3d9;fill-opacity:1;fill-rule:nonzero;stroke:none;stroke-width:1;marker:none;visibility:visible;display:inline;overflow:visible;enable-background:accumulate"
     d="M 5 7 L 5 22 L 5.34375 22 L 6.40625 22 L 16.28125 22 L 17.71875 22 L 27.59375 22 L 29 22 L 29 19.5 L 29 7 L 6.40625 7 L 5 7 z M 6 9 L 10 9 L 10 12 L 6 12 L 6 9 z M 11 9 L 19 9 L 19 12 L 11 12 L 11 9 z M 20 9 L 28 9 L 28 12 L 20 12 L 20 9 z M 6 13 L 10 13 L 10 16 L 6 16 L 6 13 z M 11 13 L 19 13 L 19 16 L 11 16 L 11 13 z M 20 13 L 28 13 L 28 16 L 20 16 L 20 13 z M 6 17 L 10 17 L 10 20 L 6 20 L 6 17 z M 11 17 L 19 17 L 19 20 L 11 20 L 11 17 z M 20 17 L 28 17 L 28 20 L 20 20 L 20 17 z "
     id="path3014" />
  <path
     style="color:#000000;fill:#e9f3d9;fill-opacity:1;fill-rule:nonzero;stroke:none;stroke-width:1;marker:none;visibility:visible;display:inline;overflow:visible;enable-background:accumulate"
     d="M 47.5,7 C 46.67157,7 46,7.67157 46,8.5 46,9.32843 46.67157,10 47.5,10 48.32843,10 49,9.32843 49,8.5 49,7.67157 48.32843,7 47.5,7 z m 3.5,0 0,2 2,0 0,5 -5,0 0,-2 -2,0 0,3 c 0,0.554 0.446,1 1,1 l 7,0 c 0.554,0 1,-0.446 1,-1 L 55,8 C 55,7.446 54.554,7 54,7 l -3,0 z"
     id="path3012"
     inkscape:connector-curvature="0" />
</svg>

<?xml version="1.0" encoding="UTF-8"?>
<!-- Created with Inkscape (http://www.inkscape.org/) -->
<svg width="64" height="64" version="1.1" xmlns="http://www.w3.org/2000/svg" xmlns:cc="http://creativecommons.org/ns#" xmlns:dc="http://purl.org/dc/elements/1.1/" xmlns:rdf="http://www.w3.org/1999/02/22-rdf-syntax-ns#">
	<defs>
		<linearGradient id="e" x1="48.92" x2="32.67" y1="46.21" y2="24" gradientUnits="userSpaceOnUse">
			<stop stop-color="#ffffff" stop-opacity=".5298" offset="0"/>
			<stop stop-color="#ffffff" stop-opacity="0" offset="1"/>
		</linearGradient>
		<linearGradient id="d" x1="82.74" x2="71" y1="79.42" y2="69" gradientTransform="translate(-34,-33)" gradientUnits="userSpaceOnUse">
			<stop stop-color="#50931a" offset="0"/>
			<stop stop-color="#4e9316" offset=".2523"/>
			<stop stop-color="#55a018" offset="1"/>
		</linearGradient>
		<radialGradient id="b" cx="46.87" cy="36.89" r="14.16" gradientTransform="matrix(1.44,0,0,2.118,-19.19,-35.79)" gradientUnits="userSpaceOnUse">
			<stop stop-color="#002455" stop-opacity=".3139" offset="0"/>
			<stop stop-color="#0d2548" stop-opacity=".1428" offset="1"/>
		</radialGradient>
		<radialGradient id="c" cx="20.34" cy="28.54" r="30" gradientTransform="matrix(1.181,0,0,1.22,-5.424,-7.265)" gradientUnits="userSpaceOnUse">
			<stop stop-color="#1b4757" stop-opacity=".06802" offset="0"/>
			<stop stop-color="#0a4f68" stop-opacity=".01013" offset="1"/>
		</radialGradient>
		<linearGradient id="a" x1="37" x2="48.96" y1="36" y2="46.16" gradientUnits="userSpaceOnUse">
			<stop stop-color="#a3f83d" stop-opacity="0" offset="0"/>
			<stop stop-color="#a3f83d" stop-opacity=".01894" offset=".5903"/>
			<stop stop-color="#a3f83d" stop-opacity=".05317" offset=".7003"/>
			<stop stop-color="#a3f83d" stop-opacity=".1777" offset=".8081"/>
			<stop stop-color="#a3f83d" stop-opacity=".244" offset=".9019"/>
			<stop stop-color="#a3f83d" stop-opacity=".4224" offset="1"/>
		</linearGradient>
	</defs>
	<metadata>
		<rdf:RDF>
			<cc:Work rdf:about="">
				<dc:format>image/svg+xml</dc:format>
				<dc:type rdf:resource="http://purl.org/dc/dcmitype/StillImage"/>
				<dc:title/>
			</cc:Work>
		</rdf:RDF>
	</metadata>
	<path d="m4 0h60v62h-60z" fill="#4f941d"/>
	<path d="m60 2v31l-24.32 29h28.32v-56z" fill="url(#b)"/>
	<path d="m0 2h60v31l-26 31h-34z" fill="url(#e)"/>
	<path d="m0 2h60v31l-26 31h-34z" color="#000000" fill="#70bc2c"/>
	<path d="m0 2h60v31l-26 31h-34z" color="#000000" fill="url(#c)"/>
	<path d="m0 2h60v31l-26 31h-34z" color="#000000" fill="url(#a)"/>
	<path d="m34 64 26-31c-2.329 2.776-4.361 3-11 3h-12v15c0 6.644 0.04437 9.37-3 13z" fill="url(#d)"/>
	<path d="m5 7v15h24v-15h-22.59zm1 2h4v3h-4zm5 0h8v3h-8zm9 0h8v3h-8zm-14 4h4v3h-4zm5 0h8v3h-8zm9 0h8v3h-8zm-14 4h4v3h-4zm5 0h8v3h-8zm9 0h8v3h-8z" color="#000000" fill="#e9f3d9"/>
	<path d="m47.5 7c-0.8284 0-1.5 0.6716-1.5 1.5s0.6716 1.5 1.5 1.5 1.5-0.6716 1.5-1.5-0.6716-1.5-1.5-1.5zm3.5 0v2h2v5h-5v-2h-2v3c0 0.554 0.446 1 1 1h7c0.554 0 1-0.446 1-1v-7c0-0.554-0.446-1-1-1h-3z" color="#000000" fill="#e9f3d9"/>
</svg>
